Adwaita++-Light/panel/16/network-wired-acquiring.svg

<svg height="16" width="16" xmlns="http://www.w3.org/2000/svg">
  <g fill="#444">
    <path d="m2 2s-1 0-1 1v2h2v-1h10v1h2v-2c0-1-1-1-1-1zm-1 9v1c0 1 1 1 1 1h2l1 1h6l1-1h2s1 .13 1-1v-1h-4l-1 1h-4l-1-1z" opacity=".3"/>
    <path d="m3 6c-1.108 0-2 .89-2 2s.892 2 2 2 2-.89 2-2-.892-2-2-2zm5 0c-1.108 0-2 .89-2 2s.892 2 2 2 2-.89 2-2-.892-2-2-2zm5 0c-1.108 0-2 .89-2 2s.892 2 2 2 2-.89 2-2-.892-2-2-2z"/>
  </g>
</svg>

<svg xmlns="http://www.w3.org/2000/svg" width="16" height="16" version="1.1">
 <defs>
  <style id="current-color-scheme" type="text/css">
   .ColorScheme-Text { color:#444444; } .ColorScheme-Highlight { color:#4285f4; }
  </style>
 </defs>
 <path style="opacity:0.3;fill:currentColor" class="ColorScheme-Text" d="M 2,2 C 2,2 1,2 1,3 V 5 H 3 V 4 H 13 V 5 H 15 V 3 C 15,2 14,2 14,2 Z M 1,11 V 12 C 1,13 2,13 2,13 H 4 L 5,14 H 11 L 12,13 H 14 C 14,13 15,13.13 15,12 V 11 H 11 L 10,12 H 6 L 5,11 Z"/>
 <path style="fill:currentColor" class="ColorScheme-Text" d="M 3,6 C 1.892,6 1,6.89 1,8 1,9.11 1.892,10 3,10 4.108,10 5,9.11 5,8 5,6.89 4.108,6 3,6 Z M 8,6 C 6.892,6 6,6.89 6,8 6,9.11 6.892,10 8,10 9.108,10 10,9.11 10,8 10,6.89 9.108,6 8,6 Z M 13,6 C 11.892,6 11,6.89 11,8 11,9.11 11.892,10 13,10 14.108,10 15,9.11 15,8 15,6.89 14.108,6 13,6 Z"/>
</svg>
